;PYCAM-META-DATA: Filename: /home/jesse/cad/cnc/speed_control/2_inch_8_tooth_gear.dxf
;PYCAM-META-DATA: Timestamp: 2013-02-07 23:14:20.233567
;PYCAM-META-DATA: Version: 0.5.1
;Estimated machine time: 3 minutes
G40 (disable tool radius compensation)
G49 (disable tool length compensation)
G80 (cancel modal motion)
G54 (select coordinate system 1)
G90 (disable incremental moves)
G20 (imperial)
G61 (exact path mode)
F12.00000
S1000.00000
;PYCAM_TOOLPATH_SETTINGS: START
;[Bounds]
;maxz = 0.18
;maxx = 1.56030333609
;maxy = 1.56030333609
;minx = -1.56030333609
;miny = -1.56030333609
;minz = 0.0
;
;[Tool]
;torus_radius = 0.125
;speed = 1000.0
;shape = CylindricalCutter
;tool_radius = 0.0625
;feedrate = 12.0
;
;[Process]
;engrave_offset = 0.0625
;step_down = 0.125
;generator = EngraveCutter
;postprocessor = SimpleCutter
;milling_style = conventional
;material_allowance = 0.0
;pocketing_type = none
;path_direction = x
;
;PYCAM_TOOLPATH_SETTINGS: END
T4 M6
G0 Z1.0000
M3 (start spindle)
G04 P3 (wait for 3 seconds)
 X0.0947 Y-0.0000
G1 Z0.0900
 X0.0929 Y-0.0185
 X0.0875 Y-0.0362
 X0.0787 Y-0.0526
 X0.0670 Y-0.0670
 X0.0526 Y-0.0787
 X0.0362 Y-0.0875
 X0.0185 Y-0.0929
 X0.0000 Y-0.0947
 X-0.0185 Y-0.0929
 X-0.0362 Y-0.0875
 X-0.0526 Y-0.0787
 X-0.0670 Y-0.0670
 X-0.0787 Y-0.0526
 X-0.0875 Y-0.0362
 X-0.0929 Y-0.0185
 X-0.0947 Y0.0000
 X-0.0929 Y0.0185
 X-0.0875 Y0.0362
 X-0.0787 Y0.0526
 X-0.0670 Y0.0670
 X-0.0526 Y0.0787
 X-0.0362 Y0.0875
 X-0.0185 Y0.0929
 X0.0000 Y0.0947
 X0.0185 Y0.0929
 X0.0362 Y0.0875
 X0.0526 Y0.0787
 X0.0670 Y0.0670
 X0.0787 Y0.0526
 X0.0875 Y0.0362
 X0.0929 Y0.0185
 X0.0947 Y-0.0000
G0 Z1.0000
 X0.3658 Y-0.6805
G1 Z0.0900
 X0.4655 Y-0.8336
 X0.4867 Y-0.8557
 X0.5196 Y-0.8827
 X0.5674 Y-0.9131
 X0.6312 Y-0.9435
 X0.7115 Y-0.9704
 X0.8067 Y-0.9898
 X0.8572 Y-0.9964
 X0.9964 Y-0.8572
 X0.9898 Y-0.8067
 X0.9704 Y-0.7115
 X0.9435 Y-0.6312
 X0.9131 Y-0.5674
 X0.8827 Y-0.5196
 X0.8557 Y-0.4867
 X0.8336 Y-0.4655
 X0.6805 Y-0.3658
 X0.7398 Y-0.2225
 X0.9186 Y-0.2603
 X0.9492 Y-0.2610
 X0.9915 Y-0.2568
 X1.0468 Y-0.2445
 X1.1135 Y-0.2208
 X1.1893 Y-0.1830
 X1.2703 Y-0.1294
 X1.3107 Y-0.0984
 Y0.0984
 X1.2703 Y0.1294
 X1.1893 Y0.1830
 X1.1135 Y0.2208
 X1.0468 Y0.2445
 X0.9915 Y0.2568
 X0.9492 Y0.2610
 X0.9186 Y0.2603
 X0.7398 Y0.2225
 X0.6805 Y0.3658
 X0.8336 Y0.4655
 X0.8557 Y0.4867
 X0.8827 Y0.5196
 X0.9131 Y0.5674
 X0.9435 Y0.6312
 X0.9704 Y0.7115
 X0.9898 Y0.8067
 X0.9964 Y0.8572
 X0.8572 Y0.9964
 X0.8067 Y0.9898
 X0.7115 Y0.9704
 X0.6312 Y0.9435
 X0.5674 Y0.9131
 X0.5196 Y0.8827
 X0.4867 Y0.8557
 X0.4655 Y0.8336
 X0.3658 Y0.6805
 X0.2225 Y0.7398
 X0.2603 Y0.9186
 X0.2610 Y0.9492
 X0.2568 Y0.9915
 X0.2445 Y1.0468
 X0.2208 Y1.1135
 X0.1830 Y1.1893
 X0.1294 Y1.2703
 X0.0984 Y1.3107
 X-0.0984
 X-0.1294 Y1.2703
 X-0.1830 Y1.1893
 X-0.2208 Y1.1135
 X-0.2445 Y1.0468
 X-0.2568 Y0.9915
 X-0.2610 Y0.9492
 X-0.2603 Y0.9186
 X-0.2225 Y0.7398
 X-0.3658 Y0.6805
 X-0.4655 Y0.8336
 X-0.4867 Y0.8557
 X-0.5196 Y0.8827
 X-0.5674 Y0.9131
 X-0.6312 Y0.9435
 X-0.7115 Y0.9704
 X-0.8067 Y0.9898
 X-0.8572 Y0.9964
 X-0.9964 Y0.8572
 X-0.9898 Y0.8067
 X-0.9704 Y0.7115
 X-0.9435 Y0.6312
 X-0.9131 Y0.5674
 X-0.8827 Y0.5196
 X-0.8557 Y0.4867
 X-0.8336 Y0.4655
 X-0.6805 Y0.3658
 X-0.7398 Y0.2225
 X-0.9186 Y0.2603
 X-0.9492 Y0.2610
 X-0.9915 Y0.2568
 X-1.0468 Y0.2445
 X-1.1135 Y0.2208
 X-1.1893 Y0.1830
 X-1.2703 Y0.1294
 X-1.3107 Y0.0984
 Y-0.0984
 X-1.2703 Y-0.1294
 X-1.1893 Y-0.1830
 X-1.1135 Y-0.2208
 X-1.0468 Y-0.2445
 X-0.9915 Y-0.2568
 X-0.9492 Y-0.2610
 X-0.9186 Y-0.2603
 X-0.7398 Y-0.2225
 X-0.6805 Y-0.3658
 X-0.8336 Y-0.4655
 X-0.8557 Y-0.4867
 X-0.8827 Y-0.5196
 X-0.9131 Y-0.5674
 X-0.9435 Y-0.6312
 X-0.9704 Y-0.7115
 X-0.9898 Y-0.8067
 X-0.9964 Y-0.8572
 X-0.8572 Y-0.9964
 X-0.8067 Y-0.9898
 X-0.7115 Y-0.9704
 X-0.6312 Y-0.9435
 X-0.5674 Y-0.9131
 X-0.5196 Y-0.8827
 X-0.4867 Y-0.8557
 X-0.4655 Y-0.8336
 X-0.3658 Y-0.6805
 X-0.2225 Y-0.7398
 X-0.2603 Y-0.9186
 X-0.2610 Y-0.9492
 X-0.2568 Y-0.9915
 X-0.2445 Y-1.0468
 X-0.2208 Y-1.1135
 X-0.1830 Y-1.1893
 X-0.1294 Y-1.2703
 X-0.0984 Y-1.3107
 X0.0984
 X0.1294 Y-1.2703
 X0.1830 Y-1.1893
 X0.2208 Y-1.1135
 X0.2445 Y-1.0468
 X0.2568 Y-0.9915
 X0.2610 Y-0.9492
 X0.2603 Y-0.9186
 X0.2225 Y-0.7398
 X0.3658 Y-0.6805
G0 Z1.0000
 X0.0947 Y-0.0000
G1 Z0.0000
 X0.0929 Y-0.0185
 X0.0875 Y-0.0362
 X0.0787 Y-0.0526
 X0.0670 Y-0.0670
 X0.0526 Y-0.0787
 X0.0362 Y-0.0875
 X0.0185 Y-0.0929
 X0.0000 Y-0.0947
 X-0.0185 Y-0.0929
 X-0.0362 Y-0.0875
 X-0.0526 Y-0.0787
 X-0.0670 Y-0.0670
 X-0.0787 Y-0.0526
 X-0.0875 Y-0.0362
 X-0.0929 Y-0.0185
 X-0.0947 Y0.0000
 X-0.0929 Y0.0185
 X-0.0875 Y0.0362
 X-0.0787 Y0.0526
 X-0.0670 Y0.0670
 X-0.0526 Y0.0787
 X-0.0362 Y0.0875
 X-0.0185 Y0.0929
 X0.0000 Y0.0947
 X0.0185 Y0.0929
 X0.0362 Y0.0875
 X0.0526 Y0.0787
 X0.0670 Y0.0670
 X0.0787 Y0.0526
 X0.0875 Y0.0362
 X0.0929 Y0.0185
 X0.0947 Y-0.0000
G0 Z1.0000
 X0.3658 Y-0.6805
G1 Z0.0000
 X0.4655 Y-0.8336
 X0.4867 Y-0.8557
 X0.5196 Y-0.8827
 X0.5674 Y-0.9131
 X0.6312 Y-0.9435
 X0.7115 Y-0.9704
 X0.8067 Y-0.9898
 X0.8572 Y-0.9964
 X0.9964 Y-0.8572
 X0.9898 Y-0.8067
 X0.9704 Y-0.7115
 X0.9435 Y-0.6312
 X0.9131 Y-0.5674
 X0.8827 Y-0.5196
 X0.8557 Y-0.4867
 X0.8336 Y-0.4655
 X0.6805 Y-0.3658
 X0.7398 Y-0.2225
 X0.9186 Y-0.2603
 X0.9492 Y-0.2610
 X0.9915 Y-0.2568
 X1.0468 Y-0.2445
 X1.1135 Y-0.2208
 X1.1893 Y-0.1830
 X1.2703 Y-0.1294
 X1.3107 Y-0.0984
 Y0.0984
 X1.2703 Y0.1294
 X1.1893 Y0.1830
 X1.1135 Y0.2208
 X1.0468 Y0.2445
 X0.9915 Y0.2568
 X0.9492 Y0.2610
 X0.9186 Y0.2603
 X0.7398 Y0.2225
 X0.6805 Y0.3658
 X0.8336 Y0.4655
 X0.8557 Y0.4867
 X0.8827 Y0.5196
 X0.9131 Y0.5674
 X0.9435 Y0.6312
 X0.9704 Y0.7115
 X0.9898 Y0.8067
 X0.9964 Y0.8572
 X0.8572 Y0.9964
 X0.8067 Y0.9898
 X0.7115 Y0.9704
 X0.6312 Y0.9435
 X0.5674 Y0.9131
 X0.5196 Y0.8827
 X0.4867 Y0.8557
 X0.4655 Y0.8336
 X0.3658 Y0.6805
 X0.2225 Y0.7398
 X0.2603 Y0.9186
 X0.2610 Y0.9492
 X0.2568 Y0.9915
 X0.2445 Y1.0468
 X0.2208 Y1.1135
 X0.1830 Y1.1893
 X0.1294 Y1.2703
 X0.0984 Y1.3107
 X-0.0984
 X-0.1294 Y1.2703
 X-0.1830 Y1.1893
 X-0.2208 Y1.1135
 X-0.2445 Y1.0468
 X-0.2568 Y0.9915
 X-0.2610 Y0.9492
 X-0.2603 Y0.9186
 X-0.2225 Y0.7398
 X-0.3658 Y0.6805
 X-0.4655 Y0.8336
 X-0.4867 Y0.8557
 X-0.5196 Y0.8827
 X-0.5674 Y0.9131
 X-0.6312 Y0.9435
 X-0.7115 Y0.9704
 X-0.8067 Y0.9898
 X-0.8572 Y0.9964
 X-0.9964 Y0.8572
 X-0.9898 Y0.8067
 X-0.9704 Y0.7115
 X-0.9435 Y0.6312
 X-0.9131 Y0.5674
 X-0.8827 Y0.5196
 X-0.8557 Y0.4867
 X-0.8336 Y0.4655
 X-0.6805 Y0.3658
 X-0.7398 Y0.2225
 X-0.9186 Y0.2603
 X-0.9492 Y0.2610
 X-0.9915 Y0.2568
 X-1.0468 Y0.2445
 X-1.1135 Y0.2208
 X-1.1893 Y0.1830
 X-1.2703 Y0.1294
 X-1.3107 Y0.0984
 Y-0.0984
 X-1.2703 Y-0.1294
 X-1.1893 Y-0.1830
 X-1.1135 Y-0.2208
 X-1.0468 Y-0.2445
 X-0.9915 Y-0.2568
 X-0.9492 Y-0.2610
 X-0.9186 Y-0.2603
 X-0.7398 Y-0.2225
 X-0.6805 Y-0.3658
 X-0.8336 Y-0.4655
 X-0.8557 Y-0.4867
 X-0.8827 Y-0.5196
 X-0.9131 Y-0.5674
 X-0.9435 Y-0.6312
 X-0.9704 Y-0.7115
 X-0.9898 Y-0.8067
 X-0.9964 Y-0.8572
 X-0.8572 Y-0.9964
 X-0.8067 Y-0.9898
 X-0.7115 Y-0.9704
 X-0.6312 Y-0.9435
 X-0.5674 Y-0.9131
 X-0.5196 Y-0.8827
 X-0.4867 Y-0.8557
 X-0.4655 Y-0.8336
 X-0.3658 Y-0.6805
 X-0.2225 Y-0.7398
 X-0.2603 Y-0.9186
 X-0.2610 Y-0.9492
 X-0.2568 Y-0.9915
 X-0.2445 Y-1.0468
 X-0.2208 Y-1.1135
 X-0.1830 Y-1.1893
 X-0.1294 Y-1.2703
 X-0.0984 Y-1.3107
 X0.0984
 X0.1294 Y-1.2703
 X0.1830 Y-1.1893
 X0.2208 Y-1.1135
 X0.2445 Y-1.0468
 X0.2568 Y-0.9915
 X0.2610 Y-0.9492
 X0.2603 Y-0.9186
 X0.2225 Y-0.7398
 X0.3658 Y-0.6805
G0 Z1.0000
M5 (stop spindle)
G04 P3 (wait for 3 seconds)
G0 Z1.0000
M2 (end program)
