;PYCAM-META-DATA: Filename: /home/jesse/cad/cnc/speed_control/3_inch_8_tooth_gear.dxf
;PYCAM-META-DATA: Timestamp: 2013-02-07 23:17:47.231306
;PYCAM-META-DATA: Version: 0.5.1
;Estimated machine time: 4 minutes
G40 (disable tool radius compensation)
G49 (disable tool length compensation)
G80 (cancel modal motion)
G54 (select coordinate system 1)
G90 (disable incremental moves)
G20 (imperial)
G61 (exact path mode)
F12.00000
S1000.00000
;PYCAM_TOOLPATH_SETTINGS: START
;[Bounds]
;maxz = 0.18
;maxx = 2.16043508101
;maxy = 2.16043508101
;minx = -2.16043508101
;miny = -2.16043508101
;minz = 0.0
;
;[Tool]
;torus_radius = 0.125
;speed = 1000.0
;shape = CylindricalCutter
;tool_radius = 0.0625
;feedrate = 12.0
;
;[Process]
;engrave_offset = 0.0625
;step_down = 0.1
;generator = EngraveCutter
;postprocessor = SimpleCutter
;milling_style = conventional
;material_allowance = 0.0
;pocketing_type = none
;path_direction = x
;
;PYCAM_TOOLPATH_SETTINGS: END
T4 M6
G0 Z1.0000
M3 (start spindle)
G04 P3 (wait for 3 seconds)
 X0.0947 Y-0.0000
G1 Z0.0900
 X0.0929 Y-0.0185
 X0.0875 Y-0.0362
 X0.0787 Y-0.0526
 X0.0670 Y-0.0670
 X0.0526 Y-0.0787
 X0.0362 Y-0.0875
 X0.0185 Y-0.0929
 X0.0000 Y-0.0947
 X-0.0185 Y-0.0929
 X-0.0362 Y-0.0875
 X-0.0526 Y-0.0787
 X-0.0670 Y-0.0670
 X-0.0787 Y-0.0526
 X-0.0875 Y-0.0362
 X-0.0929 Y-0.0185
 X-0.0947 Y0.0000
 X-0.0929 Y0.0185
 X-0.0875 Y0.0362
 X-0.0787 Y0.0526
 X-0.0670 Y0.0670
 X-0.0526 Y0.0787
 X-0.0362 Y0.0875
 X-0.0185 Y0.0929
 X0.0000 Y0.0947
 X0.0185 Y0.0929
 X0.0362 Y0.0875
 X0.0526 Y0.0787
 X0.0670 Y0.0670
 X0.0787 Y0.0526
 X0.0875 Y0.0362
 X0.0929 Y0.0185
 X0.0947 Y-0.0000
G0 Z1.0000
 X0.9580 Y-0.8376
G1 Z0.0900
 X1.0801 Y-0.9333
 X1.1166 Y-0.9522
 X1.1728 Y-0.9734
 X1.2517 Y-0.9926
 X1.3532 Y-1.0045
 X1.4746 Y-1.0040
 X1.5127 Y-1.0015
 X1.6237 Y-0.8093
 X1.6068 Y-0.7750
 X1.5466 Y-0.6696
 X1.4854 Y-0.5877
 X1.4294 Y-0.5290
 X1.3829 Y-0.4909
 X1.3483 Y-0.4688
 X1.2044 Y-0.4108
 X1.2484 Y-0.2464
 X1.4020 Y-0.2682
 X1.4431 Y-0.2663
 X1.5024 Y-0.2566
 X1.5803 Y-0.2337
 X1.6742 Y-0.1934
 X1.7790 Y-0.1322
 X1.8108 Y-0.1110
 Y0.1110
 X1.7790 Y0.1322
 X1.6742 Y0.1934
 X1.5803 Y0.2337
 X1.5024 Y0.2566
 X1.4431 Y0.2663
 X1.4020 Y0.2682
 X1.2484 Y0.2464
 X1.2044 Y0.4108
 X1.3483 Y0.4688
 X1.3829 Y0.4909
 X1.4294 Y0.5290
 X1.4854 Y0.5877
 X1.5466 Y0.6696
 X1.6068 Y0.7750
 X1.6237 Y0.8093
 X1.5127 Y1.0015
 X1.4746 Y1.0040
 X1.3532 Y1.0045
 X1.2517 Y0.9926
 X1.1728 Y0.9734
 X1.1166 Y0.9522
 X1.0801 Y0.9333
 X0.9580 Y0.8376
 X0.8376 Y0.9580
 X0.9333 Y1.0801
 X0.9522 Y1.1166
 X0.9734 Y1.1728
 X0.9926 Y1.2517
 X1.0045 Y1.3532
 X1.0040 Y1.4746
 X1.0015 Y1.5127
 X0.8093 Y1.6237
 X0.7750 Y1.6068
 X0.6696 Y1.5466
 X0.5877 Y1.4854
 X0.5290 Y1.4294
 X0.4909 Y1.3829
 X0.4688 Y1.3483
 X0.4108 Y1.2044
 X0.2464 Y1.2484
 X0.2682 Y1.4020
 X0.2663 Y1.4431
 X0.2566 Y1.5024
 X0.2337 Y1.5803
 X0.1934 Y1.6742
 X0.1322 Y1.7790
 X0.1110 Y1.8108
 X-0.1110
 X-0.1322 Y1.7790
 X-0.1934 Y1.6742
 X-0.2337 Y1.5803
 X-0.2566 Y1.5024
 X-0.2663 Y1.4431
 X-0.2682 Y1.4020
 X-0.2464 Y1.2484
 X-0.4108 Y1.2044
 X-0.4688 Y1.3483
 X-0.4909 Y1.3829
 X-0.5290 Y1.4294
 X-0.5877 Y1.4854
 X-0.6696 Y1.5466
 X-0.7750 Y1.6068
 X-0.8093 Y1.6237
 X-1.0015 Y1.5127
 X-1.0040 Y1.4746
 X-1.0045 Y1.3532
 X-0.9926 Y1.2517
 X-0.9734 Y1.1728
 X-0.9522 Y1.1166
 X-0.9333 Y1.0801
 X-0.8376 Y0.9580
 X-0.9580 Y0.8376
 X-1.0801 Y0.9333
 X-1.1166 Y0.9522
 X-1.1728 Y0.9734
 X-1.2517 Y0.9926
 X-1.3532 Y1.0045
 X-1.4746 Y1.0040
 X-1.5127 Y1.0015
 X-1.6237 Y0.8093
 X-1.6068 Y0.7750
 X-1.5466 Y0.6696
 X-1.4854 Y0.5877
 X-1.4294 Y0.5290
 X-1.3829 Y0.4909
 X-1.3483 Y0.4688
 X-1.2044 Y0.4108
 X-1.2484 Y0.2464
 X-1.4020 Y0.2682
 X-1.4431 Y0.2663
 X-1.5024 Y0.2566
 X-1.5803 Y0.2337
 X-1.6742 Y0.1934
 X-1.7790 Y0.1322
 X-1.8108 Y0.1110
 Y-0.1110
 X-1.7790 Y-0.1322
 X-1.6742 Y-0.1934
 X-1.5803 Y-0.2337
 X-1.5024 Y-0.2566
 X-1.4431 Y-0.2663
 X-1.4020 Y-0.2682
 X-1.2484 Y-0.2464
 X-1.2044 Y-0.4108
 X-1.3483 Y-0.4688
 X-1.3829 Y-0.4909
 X-1.4294 Y-0.5290
 X-1.4854 Y-0.5877
 X-1.5466 Y-0.6696
 X-1.6068 Y-0.7750
 X-1.6237 Y-0.8093
 X-1.5127 Y-1.0015
 X-1.4746 Y-1.0040
 X-1.3532 Y-1.0045
 X-1.2517 Y-0.9926
 X-1.1728 Y-0.9734
 X-1.1166 Y-0.9522
 X-1.0801 Y-0.9333
 X-0.9580 Y-0.8376
 X-0.8376 Y-0.9580
 X-0.9333 Y-1.0801
 X-0.9522 Y-1.1166
 X-0.9734 Y-1.1728
 X-0.9926 Y-1.2517
 X-1.0045 Y-1.3532
 X-1.0040 Y-1.4746
 X-1.0015 Y-1.5127
 X-0.8093 Y-1.6237
 X-0.7750 Y-1.6068
 X-0.6696 Y-1.5466
 X-0.5877 Y-1.4854
 X-0.5290 Y-1.4294
 X-0.4909 Y-1.3829
 X-0.4688 Y-1.3483
 X-0.4108 Y-1.2044
 X-0.2464 Y-1.2484
 X-0.2682 Y-1.4020
 X-0.2663 Y-1.4431
 X-0.2566 Y-1.5024
 X-0.2337 Y-1.5803
 X-0.1934 Y-1.6742
 X-0.1322 Y-1.7790
 X-0.1110 Y-1.8108
 X0.1110
 X0.1322 Y-1.7790
 X0.1934 Y-1.6742
 X0.2337 Y-1.5803
 X0.2566 Y-1.5024
 X0.2663 Y-1.4431
 X0.2682 Y-1.4020
 X0.2464 Y-1.2484
 X0.4108 Y-1.2044
 X0.4688 Y-1.3483
 X0.4909 Y-1.3829
 X0.5290 Y-1.4294
 X0.5877 Y-1.4854
 X0.6696 Y-1.5466
 X0.7750 Y-1.6068
 X0.8093 Y-1.6237
 X1.0015 Y-1.5127
 X1.0040 Y-1.4746
 X1.0045 Y-1.3532
 X0.9926 Y-1.2517
 X0.9734 Y-1.1728
 X0.9522 Y-1.1166
 X0.9333 Y-1.0801
 X0.8376 Y-0.9580
 X0.9580 Y-0.8376
G0 Z1.0000
 X0.0947 Y-0.0000
G1 Z0.0000
 X0.0929 Y-0.0185
 X0.0875 Y-0.0362
 X0.0787 Y-0.0526
 X0.0670 Y-0.0670
 X0.0526 Y-0.0787
 X0.0362 Y-0.0875
 X0.0185 Y-0.0929
 X0.0000 Y-0.0947
 X-0.0185 Y-0.0929
 X-0.0362 Y-0.0875
 X-0.0526 Y-0.0787
 X-0.0670 Y-0.0670
 X-0.0787 Y-0.0526
 X-0.0875 Y-0.0362
 X-0.0929 Y-0.0185
 X-0.0947 Y0.0000
 X-0.0929 Y0.0185
 X-0.0875 Y0.0362
 X-0.0787 Y0.0526
 X-0.0670 Y0.0670
 X-0.0526 Y0.0787
 X-0.0362 Y0.0875
 X-0.0185 Y0.0929
 X0.0000 Y0.0947
 X0.0185 Y0.0929
 X0.0362 Y0.0875
 X0.0526 Y0.0787
 X0.0670 Y0.0670
 X0.0787 Y0.0526
 X0.0875 Y0.0362
 X0.0929 Y0.0185
 X0.0947 Y-0.0000
G0 Z1.0000
 X0.9580 Y-0.8376
G1 Z0.0000
 X1.0801 Y-0.9333
 X1.1166 Y-0.9522
 X1.1728 Y-0.9734
 X1.2517 Y-0.9926
 X1.3532 Y-1.0045
 X1.4746 Y-1.0040
 X1.5127 Y-1.0015
 X1.6237 Y-0.8093
 X1.6068 Y-0.7750
 X1.5466 Y-0.6696
 X1.4854 Y-0.5877
 X1.4294 Y-0.5290
 X1.3829 Y-0.4909
 X1.3483 Y-0.4688
 X1.2044 Y-0.4108
 X1.2484 Y-0.2464
 X1.4020 Y-0.2682
 X1.4431 Y-0.2663
 X1.5024 Y-0.2566
 X1.5803 Y-0.2337
 X1.6742 Y-0.1934
 X1.7790 Y-0.1322
 X1.8108 Y-0.1110
 Y0.1110
 X1.7790 Y0.1322
 X1.6742 Y0.1934
 X1.5803 Y0.2337
 X1.5024 Y0.2566
 X1.4431 Y0.2663
 X1.4020 Y0.2682
 X1.2484 Y0.2464
 X1.2044 Y0.4108
 X1.3483 Y0.4688
 X1.3829 Y0.4909
 X1.4294 Y0.5290
 X1.4854 Y0.5877
 X1.5466 Y0.6696
 X1.6068 Y0.7750
 X1.6237 Y0.8093
 X1.5127 Y1.0015
 X1.4746 Y1.0040
 X1.3532 Y1.0045
 X1.2517 Y0.9926
 X1.1728 Y0.9734
 X1.1166 Y0.9522
 X1.0801 Y0.9333
 X0.9580 Y0.8376
 X0.8376 Y0.9580
 X0.9333 Y1.0801
 X0.9522 Y1.1166
 X0.9734 Y1.1728
 X0.9926 Y1.2517
 X1.0045 Y1.3532
 X1.0040 Y1.4746
 X1.0015 Y1.5127
 X0.8093 Y1.6237
 X0.7750 Y1.6068
 X0.6696 Y1.5466
 X0.5877 Y1.4854
 X0.5290 Y1.4294
 X0.4909 Y1.3829
 X0.4688 Y1.3483
 X0.4108 Y1.2044
 X0.2464 Y1.2484
 X0.2682 Y1.4020
 X0.2663 Y1.4431
 X0.2566 Y1.5024
 X0.2337 Y1.5803
 X0.1934 Y1.6742
 X0.1322 Y1.7790
 X0.1110 Y1.8108
 X-0.1110
 X-0.1322 Y1.7790
 X-0.1934 Y1.6742
 X-0.2337 Y1.5803
 X-0.2566 Y1.5024
 X-0.2663 Y1.4431
 X-0.2682 Y1.4020
 X-0.2464 Y1.2484
 X-0.4108 Y1.2044
 X-0.4688 Y1.3483
 X-0.4909 Y1.3829
 X-0.5290 Y1.4294
 X-0.5877 Y1.4854
 X-0.6696 Y1.5466
 X-0.7750 Y1.6068
 X-0.8093 Y1.6237
 X-1.0015 Y1.5127
 X-1.0040 Y1.4746
 X-1.0045 Y1.3532
 X-0.9926 Y1.2517
 X-0.9734 Y1.1728
 X-0.9522 Y1.1166
 X-0.9333 Y1.0801
 X-0.8376 Y0.9580
 X-0.9580 Y0.8376
 X-1.0801 Y0.9333
 X-1.1166 Y0.9522
 X-1.1728 Y0.9734
 X-1.2517 Y0.9926
 X-1.3532 Y1.0045
 X-1.4746 Y1.0040
 X-1.5127 Y1.0015
 X-1.6237 Y0.8093
 X-1.6068 Y0.7750
 X-1.5466 Y0.6696
 X-1.4854 Y0.5877
 X-1.4294 Y0.5290
 X-1.3829 Y0.4909
 X-1.3483 Y0.4688
 X-1.2044 Y0.4108
 X-1.2484 Y0.2464
 X-1.4020 Y0.2682
 X-1.4431 Y0.2663
 X-1.5024 Y0.2566
 X-1.5803 Y0.2337
 X-1.6742 Y0.1934
 X-1.7790 Y0.1322
 X-1.8108 Y0.1110
 Y-0.1110
 X-1.7790 Y-0.1322
 X-1.6742 Y-0.1934
 X-1.5803 Y-0.2337
 X-1.5024 Y-0.2566
 X-1.4431 Y-0.2663
 X-1.4020 Y-0.2682
 X-1.2484 Y-0.2464
 X-1.2044 Y-0.4108
 X-1.3483 Y-0.4688
 X-1.3829 Y-0.4909
 X-1.4294 Y-0.5290
 X-1.4854 Y-0.5877
 X-1.5466 Y-0.6696
 X-1.6068 Y-0.7750
 X-1.6237 Y-0.8093
 X-1.5127 Y-1.0015
 X-1.4746 Y-1.0040
 X-1.3532 Y-1.0045
 X-1.2517 Y-0.9926
 X-1.1728 Y-0.9734
 X-1.1166 Y-0.9522
 X-1.0801 Y-0.9333
 X-0.9580 Y-0.8376
 X-0.8376 Y-0.9580
 X-0.9333 Y-1.0801
 X-0.9522 Y-1.1166
 X-0.9734 Y-1.1728
 X-0.9926 Y-1.2517
 X-1.0045 Y-1.3532
 X-1.0040 Y-1.4746
 X-1.0015 Y-1.5127
 X-0.8093 Y-1.6237
 X-0.7750 Y-1.6068
 X-0.6696 Y-1.5466
 X-0.5877 Y-1.4854
 X-0.5290 Y-1.4294
 X-0.4909 Y-1.3829
 X-0.4688 Y-1.3483
 X-0.4108 Y-1.2044
 X-0.2464 Y-1.2484
 X-0.2682 Y-1.4020
 X-0.2663 Y-1.4431
 X-0.2566 Y-1.5024
 X-0.2337 Y-1.5803
 X-0.1934 Y-1.6742
 X-0.1322 Y-1.7790
 X-0.1110 Y-1.8108
 X0.1110
 X0.1322 Y-1.7790
 X0.1934 Y-1.6742
 X0.2337 Y-1.5803
 X0.2566 Y-1.5024
 X0.2663 Y-1.4431
 X0.2682 Y-1.4020
 X0.2464 Y-1.2484
 X0.4108 Y-1.2044
 X0.4688 Y-1.3483
 X0.4909 Y-1.3829
 X0.5290 Y-1.4294
 X0.5877 Y-1.4854
 X0.6696 Y-1.5466
 X0.7750 Y-1.6068
 X0.8093 Y-1.6237
 X1.0015 Y-1.5127
 X1.0040 Y-1.4746
 X1.0045 Y-1.3532
 X0.9926 Y-1.2517
 X0.9734 Y-1.1728
 X0.9522 Y-1.1166
 X0.9333 Y-1.0801
 X0.8376 Y-0.9580
 X0.9580 Y-0.8376
G0 Z1.0000
M5 (stop spindle)
G04 P3 (wait for 3 seconds)
G0 Z1.0000
M2 (end program)
